svg/u26f2.svg

<svg viewBox="0 0 128 128" xmlns="http://www.w3.org/2000/svg">
  <path d="M11.15,102.66l1.35,1.63c0,0,7.62,10.04,27.04,16.36c16.3,5.3,35.67,4.54,49.92-0.42 c19.75-6.88,27.06-19.78,27.06-19.78L11.15,102.66z" fill="#89847E"/>
  <path d="M7.08,89.38c0,0-1.36,3.21-0.37,7.07c0.97,3.78,8.15,18.61,56.52,19 c43.86,0.36,57.02-16.11,56.89-22.17c-0.09-4.02-5.97-14.5-36.91-16.2S31.69,78.9,31.69,78.9L7.08,89.38z" fill="#CFC6BD"/>
  <path d="M63.97,81.95c-18.88-0.23-46.41,4.41-48.85,11.33c-2.01,5.71,6.58,11.33,24.24,13.77 s48.73,0.37,54.82-1.95s16.93-6.82,16.93-6.82l2.56-3.78c0,0,0.24-2.07-1.46-3.65S104.41,82.44,63.97,81.95z" fill="#A2E4FD"/>
  <path d="M115.85,92.55c1.21-0.13,1.31,2.63-1.31,5.14s-17.8,13.38-50.78,13.5S6.47,102.65,6.55,91.54 c0.09-11.84,41.5-16.67,55.6-14.75c14.1,1.91-2.39,2.27-2.39,2.27S41.22,79.03,26,83.23c-7.04,1.94-12.9,4.18-13.02,7.77 c-0.12,3.58,10.28,14.58,49.7,15.17S114.78,92.67,115.85,92.55z" fill="#E4DCD5"/>
  <path d="M27.87,87.24c-0.58,0.33,0,1.29-0.71,1.95c-0.71,0.67-4.03,2.09-4.33,4.62 c-0.48,4,7.14,4.86,7.86,4.43c0.71-0.43-2.71-3.24-2.05-4.9c0.78-1.95,3.09-3.24,3.09-4.57C31.73,87.43,28.96,86.63,27.87,87.24z" fill="#FFFFFF"/>
  <path d="M37.3,85.63c0,0.52,1.14,0.95,1.14,1.71c0,1.05-4.81,3.38-4.24,7.57c0.53,3.85,4.29,5.72,6.19,6.52 c2.38,1,8.16,1.36,7.9,0.14c-0.19-0.9-4.48-1.33-6.9-4.05c-2.14-2.39-2.17-5.1,0.1-7.28c2.95-2.86,1.1-4.95-0.86-5.29 C38.5,84.6,37.3,85.15,37.3,85.63z" fill="#FFFFFF"/>
  <path d="M64.04,86.17c-12.33,0.18-19.13,3.04-19.03,7.45c0.11,4.9,9.05,7.37,19.38,7.43 c11.12,0.07,17.62-3.38,17.85-7.14C82.48,90.15,76.16,85.99,64.04,86.17z" fill="#4FC0FA"/>
  <path d="M85.51,85.96c-0.16,0.16-1.09,1.41,1.03,3.8c1.65,1.86,2.17,3.75,1.68,6.41 c-0.49,2.66,1.2,4.95,4.95,4.95c3.75,0,4.46-1.2,4.46-1.52c0-0.33-2.73-1.32-3.37-4.73c-0.76-4.02-2.28-6.68-4.57-8.1 C87.32,85.3,85.86,85.6,85.51,85.96z" fill="#4FC0FA"/>
  <path d="M95.4,89.05c-0.01,0.55,3.48,2.23,3.7,4.51s-0.76,3.75-0.11,4.13s6.13-0.76,6.09-4.84 C105.02,88.13,95.45,86.99,95.4,89.05z" fill="#4FC0FA"/>
  <polygon points="30.29,56.65 33.13,88.23 35.97,87.95 34.96,57.84 " fill="#A2E4FD"/>
  <path d="M91.43,58.57c0,1.92-0.09,26.45-0.09,26.45l3.02,0.55l1.65-29.66 C96.01,55.92,91.43,56.83,91.43,58.57z" fill="#A2E4FD"/>
  <path d="M28.64,56.28c0,0,3.48,7.05,12.17,12.17c8.7,5.13,15.26,3.89,15.47,11.53 c0.15,5.49-1.1,6.5-2.29,7.78c-1.15,1.23-3.3,2.2-3.3,4.3c0,2.11,2.1,4.85,13.3,4.91c11.83,0.07,12.72-3.18,12.6-5.28 c-0.12-2.06-2.81-3.68-3.72-5.15c-0.78-1.25-1.1-3.64-1.04-6.2c0.21-7.89,5.27-6.51,14.19-11.81c11-6.53,12.26-12.54,12.26-12.54 L28.64,56.28z" fill="#89847E"/>
  <path d="M30.33,49.1l9.66-5.08l19.04-2.29l10.94-2.06c0,0,6.84,0.44,11.62,1.22 c4.38,0.72,8.37,2.03,8.37,2.03l0.46,2.01l3.48,0.27c0,0,3.11-0.09,5.49,2.75c2.53,3.02,2.01,6.68-3.84,10.43 c-5.79,3.71-30.75,4.76-30.75,4.76l-28.56-6.22L30.33,49.1z" fill="#CFC6BD"/>
  <path d="M34.32,53.17c0,0-1.92-8.6,29.93-8.79s31.39,8.7,31.39,8.7l-7.6,6.41l-23.07,3.02l-26.82-4.03 L34.32,53.17z" fill="#A2E4FD"/>
  <path d="M36.44,50.32c0,0-0.92-1.12-1.63-1.47s-2.24-1.02-2.24-1.02s0.66-1.32,1.88-1.83s2.19-0.61,3.56-0.1 c1.37,0.51,1.98,2.44,1.98,2.44L36.44,50.32z" fill="#A2E4FD"/>
  <path d="M90.38,48.39c0,0,1.22-1.64,2.03-2.14c0.92-0.56,2.19-1.02,2.19-1.02s-1.53-1.53-3.76-1.32 c-2.24,0.2-4.07,3-4.07,3L90.38,48.39z" fill="#A2E4FD"/>
  <path d="M39.58,46.13c0.56,0.06,5.43-1.81,8.7-2.33c6.58-1.04,10.97-0.96,10.97-0.96l0.21-2.73 c0,0-5.5-0.42-13.18,1.09c-4.99,0.98-8.21,2.47-8.21,2.47L39.58,46.13z" fill="#E2DDD7"/>
  <path d="M94.43,47.01c-0.68,0.65,1.94,1.83,1.23,4.02c-0.83,2.55-7.24,8.33-31.95,8.47 c-24.78,0.14-29.14-6.39-30.35-8.27c-1.35-2.11,1.22-4-1.68-4.23c-2.48-0.2-5.82,1.97-5.55,5.23c0.26,3.14,5.96,13.47,37.97,13.47 c30.73,0,36.09-10.56,36.36-13.71C100.73,48.81,95.96,45.55,94.43,47.01z" fill="#E2DDD7"/>
  <path d="M51.4,48.3c0.6,0.49-2.79,2.13-2.84,4.04c-0.04,1.91,3.22,3.52,2.75,4.17 c-0.67,0.93-9.54-0.68-9.36-3.99C42.18,48.39,50.16,47.28,51.4,48.3z" fill="#FFFFFD"/>
  <path d="M51.87,52.64c-0.11,1.92,3.08,3.87,12.57,3.91c9.86,0.04,11.92-1.98,11.71-4.17 c-0.19-1.94-4.92-2.75-11.9-2.88C58,49.38,52.02,50.06,51.87,52.64z" fill="#4FC0FA"/>
  <path d="M78.03,49.28c-0.35,0.55,2.65,1.66,2.6,3.59c-0.04,1.93-2.24,3.45-1.75,3.9s7.94-0.31,7.9-4.08 C86.73,48.92,78.74,48.15,78.03,49.28z" fill="#4FC0FA"/>
  <path d="M58.73,53.04l-0.04-7.85c0,0-2.78-2.69-3.99-5.7c-1.21-3.01-1.35-5.34-0.9-6.24s3.32-1.35,3.32-1.35 l7.72,2.24c0,0,8.84-2.24,9.29-1.88c0.45,0.36,0.81,3.92-0.18,6.86c-1.3,3.86-3.86,5.97-3.86,5.97l0.04,8.39c0,0-1.39,1.4-5.83,1.44 C59.14,54.97,58.73,53.04,58.73,53.04z" fill="#89847E"/>
  <path d="M64.03,28.5c-8.17,0.04-10.23,4.76-10.23,4.76s2.2,3.1,10.5,3.19c8.66,0.09,9.89-4.09,9.89-4.09 S71.65,28.46,64.03,28.5z" fill="#A9A299"/>
  <path d="M73.15,58.85c0,0,6.16,0.34,7.13,4.32c0.97,3.98,0.65,23.22,0.65,23.22l3.98-2.03 c0,0,1.13-18.96,1.45-21.88c0.24-2.2,0.98-6.77,0.98-6.77l-5.36,1.62L73.15,58.85z" fill="#A2E4FD"/>
  <path d="M42.13,57.56c0,0-0.64,0.76-0.97,2.76c-0.49,2.92,0.32,10.15,0.65,14.45 c0.32,4.3,0.81,10.31,0.81,10.31l3.17-0.81c0,0,0.24-11.2,0.57-15.34s1.7-7.39,4.14-8.44s5.2-1.87,5.2-1.87l-12.42-2.44L42.13,57.56 z" fill="#A2E4FD"/>
  <path d="M64.29,32.32c2.84,0,2.92-2.03,2.92-3.17c0-1.14,1.3-14.21,9.82-14.45 c8.04-0.23,9.51,19.49,9.61,24.37c0.09,4.16,0.08,10.28,0.08,10.28l3.85-0.79c0,0,3.08-37.98-12.81-38.97 c-7.29-0.46-10.63,5.6-10.63,5.6s-0.24-7.06-0.41-9.09s-1.79-2.6-2.84-2.52c-1.06,0.08-2.35,0.97-2.52,2.52 c-0.16,1.54-0.08,9.01-0.08,9.01s-4.13-6.41-9.66-6.33c-6.01,0.08-12.74,7.14-14.61,21.75c-1.87,14.61-0.32,21.35-0.32,21.35 l3.78-2.97c0,0-0.21-15.29,1.57-22.03S47,14.07,51.31,14.07s6.9,4.62,8.68,9.24c0.97,2.52,1.12,5.34,1.14,6.17 C61.16,30.99,61.61,32.32,64.29,32.32z" fill="#A2E4FD"/>
  <line fill="none" x1="239.88" x2="240.26" y1="30.86" y2="31.23"/>
</svg>

<svg viewBox="0 0 128 128" xmlns="http://www.w3.org/2000/svg">
  <defs/>
  <path d="M11.15,102.66 L12.5,104.29 C12.5,104.29 20.12,114.33 39.54,120.65 C55.84,125.95 75.21,125.19 89.46,120.23 C109.21,113.35 116.52,100.45 116.52,100.45 L11.15,102.66 Z" fill="#89847E"/>
  <path d="M7.08,89.38 C7.08,89.38 5.72,92.59 6.71,96.45 C7.68,100.23 14.86,115.06 63.23,115.45 C107.09,115.81 120.25,99.34 120.12,93.28 C120.03,89.26 114.15,78.78 83.21,77.08 C52.27,75.38 31.69,78.9 31.69,78.9 L7.08,89.38 Z" fill="#CFC6BD"/>
  <path d="M63.97,81.95 C45.09,81.72 17.56,86.36 15.12,93.28 C13.11,98.99 21.7,104.61 39.36,107.05 C57.02,109.49 88.09,107.42 94.18,105.1 C100.27,102.78 111.11,98.28 111.11,98.28 L113.67,94.5 C113.67,94.5 113.91,92.43 112.21,90.85 C110.51,89.27 104.41,82.44 63.97,81.95 Z" fill="#A2E4FD"/>
  <path d="M115.85,92.55 C117.06,92.42 117.16,95.18 114.54,97.69 C111.92,100.2 96.74,111.07 63.76,111.19 C30.78,111.31 6.47,102.65 6.55,91.54 C6.64,79.7 48.05,74.87 62.15,76.79 C76.25,78.7 59.76,79.06 59.76,79.06 C59.76,79.06 41.22,79.03 26,83.23 C18.96,85.17 13.1,87.41 12.98,91 C12.86,94.58 23.26,105.58 62.68,106.17 C102.1,106.76 114.78,92.67 115.85,92.55 Z" fill="#E4DCD5"/>
  <path d="M27.87,87.24 C27.29,87.57 27.87,88.53 27.16,89.19 C26.45,89.86 23.13,91.28 22.83,93.81 C22.35,97.81 29.97,98.67 30.69,98.24 C31.4,97.81 27.98,95 28.64,93.34 C29.42,91.39 31.73,90.1 31.73,88.77 C31.73,87.43 28.96,86.63 27.87,87.24 Z" fill="#FFFFFF"/>
  <path d="M37.3,85.63 C37.3,86.15 38.44,86.58 38.44,87.34 C38.44,88.39 33.63,90.72 34.2,94.91 C34.73,98.76 38.49,100.63 40.39,101.43 C42.77,102.43 48.55,102.79 48.29,101.57 C48.1,100.67 43.81,100.24 41.39,97.52 C39.25,95.13 39.22,92.42 41.49,90.24 C44.44,87.38 42.59,85.29 40.63,84.95 C38.5,84.6 37.3,85.15 37.3,85.63 Z" fill="#FFFFFF"/>
  <path d="M64.04,86.17 C51.71,86.35 44.91,89.21 45.01,93.62 C45.12,98.52 54.06,100.99 64.39,101.05 C75.51,101.12 82.01,97.67 82.24,93.91 C82.48,90.15 76.16,85.99 64.04,86.17 Z" fill="#4FC0FA"/>
  <path d="M85.51,85.96 C85.35,86.12 84.42,87.37 86.54,89.76 C88.19,91.62 88.71,93.51 88.22,96.17 C87.73,98.83 89.42,101.12 93.17,101.12 C96.92,101.12 97.63,99.92 97.63,99.6 C97.63,99.27 94.9,98.28 94.26,94.87 C93.5,90.85 91.98,88.19 89.69,86.77 C87.32,85.3 85.86,85.6 85.51,85.96 Z" fill="#4FC0FA"/>
  <path d="M95.4,89.05 C95.39,89.6 98.88,91.28 99.1,93.56 C99.32,95.84 98.34,97.31 98.99,97.69 C99.64,98.07 105.12,96.93 105.08,92.85 C105.02,88.13 95.45,86.99 95.4,89.05 Z" fill="#4FC0FA"/>
  <path d="M30.29,56.65 L33.13,88.23 L35.97,87.95 L34.96,57.84 Z" fill="#A2E4FD"/>
  <path d="M91.43,58.57 C91.43,60.49 91.34,85.02 91.34,85.02 L94.36,85.57 L96.01,55.91 C96.01,55.92 91.43,56.83 91.43,58.57 Z" fill="#A2E4FD"/>
  <path d="M28.64,56.28 C28.64,56.28 32.12,63.33 40.81,68.45 C49.51,73.58 56.07,72.34 56.28,79.98 C56.43,85.47 55.18,86.48 53.99,87.76 C52.84,88.99 50.69,89.96 50.69,92.06 C50.69,94.17 52.79,96.91 63.99,96.97 C75.82,97.04 76.71,93.79 76.59,91.69 C76.47,89.63 73.78,88.01 72.87,86.54 C72.09,85.29 71.77,82.9 71.83,80.34 C72.04,72.45 77.1,73.83 86.02,68.53 C97.02,62 98.28,55.99 98.28,55.99 L28.64,56.28 Z" fill="#89847E"/>
  <path d="M30.33,49.1 L39.99,44.02 L59.03,41.73 L69.97,39.67 C69.97,39.67 76.81,40.11 81.59,40.89 C85.97,41.61 89.96,42.92 89.96,42.92 L90.42,44.93 L93.9,45.2 C93.9,45.2 97.01,45.11 99.39,47.95 C101.92,50.97 101.4,54.63 95.55,58.38 C89.76,62.09 64.8,63.14 64.8,63.14 L36.24,56.92 L30.33,49.1 Z" fill="#CFC6BD"/>
  <path d="M34.32,53.17 C34.32,53.17 32.4,44.57 64.25,44.38 C96.1,44.19 95.64,53.08 95.64,53.08 L88.04,59.49 L64.97,62.51 L38.15,58.48 L34.32,53.17 Z" fill="#A2E4FD"/>
  <path d="M36.44,50.32 C36.44,50.32 35.52,49.2 34.81,48.85 C34.1,48.5 32.57,47.83 32.57,47.83 C32.57,47.83 33.23,46.51 34.45,46 C35.67,45.49 36.64,45.39 38.01,45.9 C39.38,46.41 39.99,48.34 39.99,48.34 L36.44,50.32 Z" fill="#A2E4FD"/>
  <path d="M90.38,48.39 C90.38,48.39 91.6,46.75 92.41,46.25 C93.33,45.69 94.6,45.23 94.6,45.23 C94.6,45.23 93.07,43.7 90.84,43.91 C88.6,44.11 86.77,46.91 86.77,46.91 L90.38,48.39 Z" fill="#A2E4FD"/>
  <path d="M39.58,46.13 C40.14,46.19 45.01,44.32 48.28,43.8 C54.86,42.76 59.25,42.84 59.25,42.84 L59.46,40.11 C59.46,40.11 53.96,39.69 46.28,41.2 C41.29,42.18 38.07,43.67 38.07,43.67 L39.58,46.13 Z" fill="#E2DDD7"/>
  <path d="M94.43,47.01 C93.75,47.66 96.37,48.84 95.66,51.03 C94.83,53.58 88.42,59.36 63.71,59.5 C38.93,59.64 34.57,53.11 33.36,51.23 C32.01,49.12 34.58,47.23 31.68,47 C29.2,46.8 25.86,48.97 26.13,52.23 C26.39,55.37 32.09,65.7 64.1,65.7 C94.83,65.7 100.19,55.14 100.46,51.99 C100.73,48.81 95.96,45.55 94.43,47.01 Z" fill="#E2DDD7"/>
  <path d="M51.4,48.3 C52,48.79 48.61,50.43 48.56,52.34 C48.52,54.25 51.78,55.86 51.31,56.51 C50.64,57.44 41.77,55.83 41.95,52.52 C42.18,48.39 50.16,47.28 51.4,48.3 Z" fill="#FFFFFD"/>
  <path d="M51.87,52.64 C51.76,54.56 54.95,56.51 64.44,56.55 C74.3,56.59 76.36,54.57 76.15,52.38 C75.96,50.44 71.23,49.63 64.25,49.5 C58,49.38 52.02,50.06 51.87,52.64 Z" fill="#4FC0FA"/>
  <path d="M78.03,49.28 C77.68,49.83 80.68,50.94 80.63,52.87 C80.59,54.8 78.39,56.32 78.88,56.77 C79.37,57.22 86.82,56.46 86.78,52.69 C86.73,48.92 78.74,48.15 78.03,49.28 Z" fill="#4FC0FA"/>
  <path d="M58.73,53.04 L58.69,45.19 C58.69,45.19 55.91,42.5 54.7,39.49 C53.49,36.48 53.35,34.15 53.8,33.25 C54.25,32.35 57.12,31.9 57.12,31.9 L64.84,34.14 C64.84,34.14 73.68,31.9 74.13,32.26 C74.58,32.62 74.94,36.18 73.95,39.12 C72.65,42.98 70.09,45.09 70.09,45.09 L70.13,53.48 C70.13,53.48 68.74,54.88 64.3,54.92 C59.14,54.97 58.73,53.04 58.73,53.04 Z" fill="#89847E"/>
  <path d="M64.03,28.5 C55.86,28.54 53.8,33.26 53.8,33.26 C53.8,33.26 56,36.36 64.3,36.45 C72.96,36.54 74.19,32.36 74.19,32.36 C74.19,32.36 71.65,28.46 64.03,28.5 Z" fill="#A9A299"/>
  <path d="M73.15,58.85 C73.15,58.85 79.31,59.19 80.28,63.17 C81.25,67.15 80.93,86.39 80.93,86.39 L84.91,84.36 C84.91,84.36 86.04,65.4 86.36,62.48 C86.6,60.28 87.34,55.71 87.34,55.71 L81.98,57.33 L73.15,58.85 Z" fill="#A2E4FD"/>
  <path d="M42.13,57.56 C42.13,57.56 41.49,58.32 41.16,60.32 C40.67,63.24 41.48,70.47 41.81,74.77 C42.13,79.07 42.62,85.08 42.62,85.08 L45.79,84.27 C45.79,84.27 46.03,73.07 46.36,68.93 C46.69,64.79 48.06,61.54 50.5,60.49 C52.94,59.44 55.7,58.62 55.7,58.62 L43.28,56.18 L42.13,57.56 Z" fill="#A2E4FD"/>
  <path d="M64.29,32.32 C67.13,32.32 67.21,30.29 67.21,29.15 C67.21,28.01 68.51,14.94 77.03,14.7 C85.07,14.47 86.54,34.19 86.64,39.07 C86.73,43.23 86.72,49.35 86.72,49.35 L90.57,48.56 C90.57,48.56 93.65,10.58 77.76,9.59 C70.47,9.13 67.13,15.19 67.13,15.19 C67.13,15.19 66.89,8.13 66.72,6.1 C66.55,4.07 64.93,3.5 63.88,3.58 C62.82,3.66 61.53,4.55 61.36,6.1 C61.2,7.64 61.28,15.11 61.28,15.11 C61.28,15.11 57.15,8.7 51.62,8.78 C45.61,8.86 38.88,15.92 37.01,30.53 C35.14,45.14 36.69,51.88 36.69,51.88 L40.47,48.91 C40.47,48.91 40.26,33.62 42.04,26.88 C43.82,20.14 47,14.07 51.31,14.07 C55.62,14.07 58.21,18.69 59.99,23.31 C60.96,25.83 61.11,28.65 61.13,29.48 C61.16,30.99 61.61,32.32 64.29,32.32 Z" fill="#A2E4FD"/>
</svg>
